X:0150
T:Irish Trott.
M:6/8
L:1/8
Q:3/8=120
I: :: ::
Z:Jack Campin * www.campin.me.uk * 2009
K:D
efg gag|efg gag|fdf ecA|d2d f2d:|
ecA ABA|ecA ABA|fga ecA|d2d f2d:|

